resources/icons/cisco/storageserver.svg

<?xml version="1.0" encoding="UTF-8"?>
<svg xmlns="http://www.w3.org/2000/svg" xmlns:xlink="http://www.w3.org/1999/xlink" width="129pt" height="200pt" viewBox="0 0 129 200" version="1.1">
<defs>
<clipPath id="clip1">
  <path d="M 17 0 L 129 0 L 129 195.882812 L 17 195.882812 Z M 17 0 "/>
</clipPath>
</defs>
<g id="surface1">
<path style=" stroke:none;fill-rule:nonzero;fill:rgb(0.784314%,42.352941%,60.784314%);fill-opacity:1;" d="M 29.199219 193.429688 L 107.394531 193.429688 L 107.394531 19.175781 L 29.199219 19.175781 Z M 29.199219 193.429688 "/>
<path style="fill:none;stroke-width:4;stroke-linecap:butt;stroke-linejoin:miter;stroke:rgb(100%,100%,100%);stroke-opacity:1;stroke-miterlimit:4;" d="M 211.33092 356.616737 L 57.458212 356.616737 L 57.458212 14.810998 L 211.33092 14.810998 " transform="matrix(0.508182,0,0,-0.509804,0,200.980392)"/>
<path style=" stroke:none;fill-rule:nonzero;fill:rgb(0.784314%,42.352941%,60.784314%);fill-opacity:1;" d="M 107.394531 193.429688 L 132.367188 168.375 L 132.367188 -5.875 L 54.171875 -5.875 L 29.199219 19.175781 L 107.394531 19.175781 L 107.394531 193.429688 "/>
<g clip-path="url(#clip1)" clip-rule="nonzero">
<path style="fill:none;stroke-width:4;stroke-linecap:butt;stroke-linejoin:miter;stroke:rgb(100%,100%,100%);stroke-opacity:1;stroke-miterlimit:4;" d="M 211.33092 14.810998 L 260.472104 63.956731 L 260.472104 405.754808 L 106.599396 405.754808 L 57.458212 356.616737 L 211.33092 356.616737 Z M 211.33092 14.810998 " transform="matrix(0.508182,0,0,-0.509804,0,200.980392)"/>
</g>
<path style="fill-rule:nonzero;fill:rgb(0.784314%,42.352941%,60.784314%);fill-opacity:1;stroke-width:4;stroke-linecap:butt;stroke-linejoin:miter;stroke:rgb(100%,100%,100%);stroke-opacity:1;stroke-miterlimit:4;" d="M 211.33092 356.616737 L 260.472104 405.754808 " transform="matrix(0.508182,0,0,-0.509804,0,200.980392)"/>
<path style="fill-rule:nonzero;fill:rgb(0.784314%,42.352941%,60.784314%);fill-opacity:1;stroke-width:4;stroke-linecap:butt;stroke-linejoin:miter;stroke:rgb(100%,100%,100%);stroke-opacity:1;stroke-miterlimit:4;" d="M 70.779293 200.283654 L 148.284464 200.283654 L 148.284464 211.531851 L 70.779293 211.531851 Z M 70.779293 200.283654 " transform="matrix(0.508182,0,0,-0.509804,0,200.980392)"/>
<path style="fill-rule:nonzero;fill:rgb(0.784314%,42.352941%,60.784314%);fill-opacity:1;stroke-width:4;stroke-linecap:butt;stroke-linejoin:miter;stroke:rgb(100%,100%,100%);stroke-opacity:1;stroke-miterlimit:4;" d="M 70.779293 176.959736 L 148.284464 176.959736 L 148.284464 188.207933 L 70.779293 188.207933 Z M 70.779293 176.959736 " transform="matrix(0.508182,0,0,-0.509804,0,200.980392)"/>
<path style="fill-rule:nonzero;fill:rgb(0.784314%,42.352941%,60.784314%);fill-opacity:1;stroke-width:4;stroke-linecap:butt;stroke-linejoin:miter;stroke:rgb(100%,100%,100%);stroke-opacity:1;stroke-miterlimit:4;" d="M 70.779293 153.605168 L 148.284464 153.605168 L 148.284464 164.853365 L 70.779293 164.853365 Z M 70.779293 153.605168 " transform="matrix(0.508182,0,0,-0.509804,0,200.980392)"/>
<path style="fill-rule:nonzero;fill:rgb(0.784314%,42.352941%,60.784314%);fill-opacity:1;stroke-width:4;stroke-linecap:butt;stroke-linejoin:miter;stroke:rgb(100%,100%,100%);stroke-opacity:1;stroke-miterlimit:4;" d="M 70.779293 130.28125 L 148.284464 130.28125 L 148.284464 141.529447 L 70.779293 141.529447 Z M 70.779293 130.28125 " transform="matrix(0.508182,0,0,-0.509804,0,200.980392)"/>
<path style="fill-rule:nonzero;fill:rgb(0.784314%,42.352941%,60.784314%);fill-opacity:1;stroke-width:4;stroke-linecap:butt;stroke-linejoin:miter;stroke:rgb(100%,100%,100%);stroke-opacity:1;stroke-miterlimit:4;" d="M 70.779293 106.957332 L 148.284464 106.957332 L 148.284464 118.213191 L 70.779293 118.213191 Z M 70.779293 106.957332 " transform="matrix(0.508182,0,0,-0.509804,0,200.980392)"/>
<path style="fill-rule:nonzero;fill:rgb(0.784314%,42.352941%,60.784314%);fill-opacity:1;stroke-width:4;stroke-linecap:butt;stroke-linejoin:miter;stroke:rgb(100%,100%,100%);stroke-opacity:1;stroke-miterlimit:4;" d="M 70.779293 83.641076 L 148.284464 83.641076 L 148.284464 94.889273 L 70.779293 94.889273 Z M 70.779293 83.641076 " transform="matrix(0.508182,0,0,-0.509804,0,200.980392)"/>
<path style="fill-rule:nonzero;fill:rgb(0.784314%,42.352941%,60.784314%);fill-opacity:1;stroke-width:4;stroke-linecap:butt;stroke-linejoin:miter;stroke:rgb(100%,100%,100%);stroke-opacity:1;stroke-miterlimit:4;" d="M 70.779293 60.278846 L 148.284464 60.278846 L 148.284464 71.534706 L 70.779293 71.534706 Z M 70.779293 60.278846 " transform="matrix(0.508182,0,0,-0.509804,0,200.980392)"/>
<path style="fill-rule:nonzero;fill:rgb(0.784314%,42.352941%,60.784314%);fill-opacity:1;stroke-width:4;stroke-linecap:butt;stroke-linejoin:miter;stroke:rgb(100%,100%,100%);stroke-opacity:1;stroke-miterlimit:4;" d="M 70.779293 36.96259 L 148.284464 36.96259 L 148.284464 48.210787 L 70.779293 48.210787 Z M 70.779293 36.96259 " transform="matrix(0.508182,0,0,-0.509804,0,200.980392)"/>
<path style=" stroke:none;fill-rule:nonzero;fill:rgb(0.784314%,42.352941%,60.784314%);fill-opacity:1;" d="M 80.101562 39.472656 C 80.101562 47.578125 62.390625 54.152344 40.554688 54.152344 C 18.722656 54.152344 1.011719 47.578125 1.011719 39.472656 L 1.011719 73.324219 C 1.011719 81.429688 18.722656 88 40.554688 88 C 62.390625 88 80.101562 81.429688 80.101562 73.324219 L 80.101562 39.472656 "/>
<path style="fill:none;stroke-width:4;stroke-linecap:butt;stroke-linejoin:miter;stroke:rgb(100%,100%,100%);stroke-opacity:1;stroke-miterlimit:4;" d="M 157.623826 316.803636 C 157.623826 300.904447 122.77225 288.008864 79.8035 288.008864 C 36.842436 288.008864 1.99086 300.904447 1.99086 316.803636 L 1.99086 250.402494 C 1.99086 234.503305 36.842436 221.615385 79.8035 221.615385 C 122.77225 221.615385 157.623826 234.503305 157.623826 250.402494 Z M 157.623826 316.803636 " transform="matrix(0.508182,0,0,-0.509804,0,200.980392)"/>
<path style=" stroke:none;fill-rule:nonzero;fill:rgb(0.784314%,42.352941%,60.784314%);fill-opacity:1;" d="M 40.554688 54.152344 C 62.390625 54.152344 80.101562 47.578125 80.101562 39.472656 C 80.101562 31.347656 62.390625 24.773438 40.554688 24.773438 C 18.722656 24.773438 1.011719 31.347656 1.011719 39.472656 C 1.011719 47.578125 18.722656 54.152344 40.554688 54.152344 "/>
<path style="fill:none;stroke-width:4;stroke-linecap:butt;stroke-linejoin:miter;stroke:rgb(100%,100%,100%);stroke-opacity:1;stroke-miterlimit:4;" d="M 79.8035 288.008864 C 122.77225 288.008864 157.623826 300.904447 157.623826 316.803636 C 157.623826 332.741136 122.77225 345.636719 79.8035 345.636719 C 36.842436 345.636719 1.99086 332.741136 1.99086 316.803636 C 1.99086 300.904447 36.842436 288.008864 79.8035 288.008864 Z M 79.8035 288.008864 " transform="matrix(0.508182,0,0,-0.509804,0,200.980392)"/>
<path style=" stroke:none;fill-rule:nonzero;fill:rgb(0.784314%,42.352941%,60.784314%);fill-opacity:1;" d="M 122.441406 70.0625 C 122.441406 78.167969 104.730469 84.738281 82.894531 84.738281 C 61.0625 84.738281 43.351562 78.167969 43.351562 70.0625 L 43.351562 103.914062 C 43.351562 112.015625 61.0625 118.589844 82.894531 118.589844 C 104.730469 118.589844 122.441406 112.015625 122.441406 103.914062 L 122.441406 70.0625 "/>
<path style="fill:none;stroke-width:4;stroke-linecap:butt;stroke-linejoin:miter;stroke:rgb(100%,100%,100%);stroke-opacity:1;stroke-miterlimit:4;" d="M 240.940155 256.800481 C 240.940155 240.901292 206.088579 228.013371 163.119829 228.013371 C 120.158766 228.013371 85.307189 240.901292 85.307189 256.800481 L 85.307189 190.399339 C 85.307189 174.507812 120.158766 161.61223 163.119829 161.61223 C 206.088579 161.61223 240.940155 174.507812 240.940155 190.399339 Z M 240.940155 256.800481 " transform="matrix(0.508182,0,0,-0.509804,0,200.980392)"/>
<path style=" stroke:none;fill-rule:nonzero;fill:rgb(0.784314%,42.352941%,60.784314%);fill-opacity:1;" d="M 82.894531 84.738281 C 104.730469 84.738281 122.441406 78.167969 122.441406 70.0625 C 122.441406 61.933594 104.730469 55.363281 82.894531 55.363281 C 61.0625 55.363281 43.351562 61.933594 43.351562 70.0625 C 43.351562 78.167969 61.0625 84.738281 82.894531 84.738281 "/>
<path style="fill:none;stroke-width:4;stroke-linecap:butt;stroke-linejoin:miter;stroke:rgb(100%,100%,100%);stroke-opacity:1;stroke-miterlimit:4;" d="M 163.119829 228.013371 C 206.088579 228.013371 240.940155 240.901292 240.940155 256.800481 C 240.940155 272.745643 206.088579 285.633564 163.119829 285.633564 C 120.158766 285.633564 85.307189 272.745643 85.307189 256.800481 C 85.307189 240.901292 120.158766 228.013371 163.119829 228.013371 Z M 163.119829 228.013371 " transform="matrix(0.508182,0,0,-0.509804,0,200.980392)"/>
</g>
</svg>

<svg xmlns="http://www.w3.org/2000/svg" viewBox="0 0 32.5 51.25" height="51.25" width="32.5"><defs><clipPath id="a"><path d="M0 10v398h260V10H0z"/></clipPath></defs><g clip-path="url(#a)" transform="matrix(.13 0 0 -.13 0 51.25)"><path d="M57.46 14.813h153.868v341.8H57.46v-341.8z" fill="#026c9b"/><path d="M211.328 356.613H57.461v-341.8h153.867" fill="none" stroke="#fff" stroke-width="4"/><path d="M211.328 14.813l49.141 49.14v341.801H106.602l-49.141-49.141h153.867v-341.8" fill="#026c9b"/><path d="M211.328 14.813l49.141 49.14v341.801H106.602l-49.141-49.141h153.867v-341.8z" fill="none" stroke="#fff" stroke-width="4"/><path d="M211.328 356.613l49.141 49.141" fill="#026c9b"/><path d="M211.328 356.613l49.141 49.141" fill="none" stroke="#fff" stroke-width="4"/><path d="M70.781 200.281h77.5v11.25h-77.5v-11.25z" fill="#026c9b"/><path d="M70.781 200.281h77.5v11.25h-77.5v-11.25z" fill="none" stroke="#fff" stroke-width="4"/><path d="M70.781 176.961h77.5v11.25h-77.5v-11.25z" fill="#026c9b"/><path d="M70.781 176.961h77.5v11.25h-77.5v-11.25z" fill="none" stroke="#fff" stroke-width="4"/><path d="M70.781 153.602h77.5v11.25h-77.5v-11.25z" fill="#026c9b"/><path d="M70.781 153.602h77.5v11.25h-77.5v-11.25z" fill="none" stroke="#fff" stroke-width="4"/><path d="M70.781 130.281h77.5v11.25h-77.5v-11.25z" fill="#026c9b"/><path d="M70.781 130.281h77.5v11.25h-77.5v-11.25z" fill="none" stroke="#fff" stroke-width="4"/><path d="M70.781 106.961h77.5v11.25h-77.5v-11.25z" fill="#026c9b"/><path d="M70.781 106.961h77.5v11.25h-77.5v-11.25z" fill="none" stroke="#fff" stroke-width="4"/><path d="M70.781 83.64h77.5v11.25h-77.5V83.64z" fill="#026c9b"/><path d="M70.781 83.64h77.5v11.25h-77.5V83.64z" fill="none" stroke="#fff" stroke-width="4"/><path d="M70.781 60.281h77.5v11.25h-77.5v-11.25z" fill="#026c9b"/><path d="M70.781 60.281h77.5v11.25h-77.5v-11.25z" fill="none" stroke="#fff" stroke-width="4"/><path d="M70.781 36.96h77.5v11.25h-77.5V36.96z" fill="#026c9b"/><path d="M70.781 36.96h77.5v11.25h-77.5V36.96z" fill="none" stroke="#fff" stroke-width="4"/><path d="M157.621 316.801c0-15.899-34.851-28.789-77.82-28.789-42.961 0-77.813 12.89-77.813 28.789v-66.399c0-15.898 34.852-28.789 77.813-28.789 42.969 0 77.82 12.891 77.82 28.789v66.399" fill="#026c9b"/><path d="M157.621 316.801c0-15.899-34.851-28.789-77.82-28.789-42.961 0-77.813 12.89-77.813 28.789v-66.399c0-15.898 34.852-28.789 77.813-28.789 42.969 0 77.82 12.891 77.82 28.789v66.399z" fill="none" stroke="#fff" stroke-width="4"/><path d="M79.8 288.012c42.97 0 77.821 12.89 77.821 28.789 0 15.941-34.851 28.832-77.82 28.832-42.961 0-77.813-12.891-77.813-28.832 0-15.899 34.852-28.789 77.813-28.789" fill="#026c9b"/><path d="M79.8 288.012c42.97 0 77.821 12.89 77.821 28.789 0 15.941-34.851 28.832-77.82 28.832-42.961 0-77.813-12.891-77.813-28.832 0-15.899 34.852-28.789 77.813-28.789z" fill="none" stroke="#fff" stroke-width="4"/><path d="M240.941 256.801c0-15.899-34.851-28.789-77.82-28.789-42.961 0-77.812 12.89-77.812 28.789v-66.399c0-15.898 34.851-28.789 77.812-28.789 42.969 0 77.82 12.891 77.82 28.789v66.399" fill="#026c9b"/><path d="M240.941 256.801c0-15.899-34.851-28.789-77.82-28.789-42.961 0-77.812 12.89-77.812 28.789v-66.399c0-15.898 34.851-28.789 77.812-28.789 42.969 0 77.82 12.891 77.82 28.789v66.399z" fill="none" stroke="#fff" stroke-width="4"/><path d="M163.121 228.012c42.969 0 77.82 12.89 77.82 28.789 0 15.941-34.851 28.832-77.82 28.832-42.961 0-77.812-12.891-77.812-28.832 0-15.899 34.851-28.789 77.812-28.789" fill="#026c9b"/><path d="M163.121 228.012c42.969 0 77.82 12.89 77.82 28.789 0 15.941-34.851 28.832-77.82 28.832-42.961 0-77.812-12.891-77.812-28.832 0-15.899 34.851-28.789 77.812-28.789z" fill="none" stroke="#fff" stroke-width="4"/></g></svg>
